X: 1275
T: An Fathach Tireannach
R: jig
M: 6/8
K: Dmajor
|:Add def|~f3 gec|Add dfa|gec ~B3|
Add deg|~f3 gfe|faf gfe|dfe ~d3:|
|:aff gfe|fag fed|aff gfe|fed efe|
aff gfe|fag fed|ede eag|edc ~d3:|

